static/images/cooperative.svg

<?xml version="1.0" encoding="UTF-8"?>
<svg width="360px" height="261px" viewBox="0 0 360 261" version="1.1" xmlns="http://www.w3.org/2000/svg" xmlns:xlink="http://www.w3.org/1999/xlink">
    <!-- Generator: Sketch 51.3 (57544) - http://www.bohemiancoding.com/sketch -->
    <title>Coop</title>
    <desc>Created with Sketch.</desc>
    <defs>
        <rect id="path-1" x="0" y="0" width="360" height="260"></rect>
        <rect id="path-3" x="0" y="0" width="360" height="260"></rect>
        <rect id="path-5" x="0" y="0" width="360" height="260"></rect>
        <rect id="path-7" x="0" y="0" width="360" height="260"></rect>
    </defs>
    <g id="Page-1" stroke="none" stroke-width="1" fill="none" fill-rule="evenodd">
        <g id="Coop">
            <g id="Coops" transform="translate(0.000000, 0.432837)">
                <g id="Rectangle-3-Copy-9" fill="#1F441D" fill-rule="nonzero">
                    <rect id="path-1" x="0" y="0" width="360" height="260"></rect>
                </g>
                <g id="Path-5-Copy-16-Clipped">
                    <mask id="mask-2" fill="white">
                        <use xlink:href="#path-1"></use>
                    </mask>
                    <g id="path-1"></g>
                    <path d="M79.0681233,70.5270414 C78.9183327,24.8191819 80.9850571,2.30542867 85.2682966,2.98578167 C91.6931559,4.00631118 84.9812143,31.9227028 88.5861522,33.0508048 C92.1910902,34.1789069 94.2284396,-4.26167426 101.822641,-5.652819 C109.416843,-7.04396374 97.0205238,33.7409721 101.308221,31.9947812 C105.595918,30.2485903 115.614669,-11.4659974 122.359281,-9.35538963 C129.103892,-7.24478185 109.364296,34.5157882 114.751561,36.2016384 C120.138827,37.8874885 129.397556,-5.0561663 136.53816,-1.25182051 C143.678764,2.55252529 119.116966,51.5944887 121.504212,52.3415354 C123.216168,52.877262 134.432866,43.5615085 139.034858,43.6278353 C140.850138,43.6539982 141.636203,45.1399656 140.403718,49.2662019 C136.04671,63.8530321 108.565871,83.6191517 93.2896162,78.8387161 C83.1054461,75.6517589 78.3649485,72.8812007 79.0681233,70.5270414 Z" id="Path-5-Copy-16" fill="#CEC7B1" fill-rule="nonzero" mask="url(#mask-2)"></path>
                </g>
                <g id="Path-5-Copy-17-Clipped">
                    <mask id="mask-4" fill="white">
                        <use xlink:href="#path-3"></use>
                    </mask>
                    <g id="path-1"></g>
                    <path d="M327.449034,211.06513 C306.612276,166.391352 298.570811,143.226179 303.324641,141.569612 C310.455386,139.08476 315.607804,165.637693 318.465605,164.16941 C321.323406,162.701128 308.447161,132.573382 315.408002,126.615748 C322.368844,120.658113 328.348653,156.086665 330.758221,155.595277 C333.16779,155.103888 325.101145,111.208503 332.941452,109.609612 C340.78176,108.010721 340.75464,152.110139 346.385499,152.408371 C352.016357,152.706604 342.37743,110.132644 351.455999,110.172079 C360.534567,110.211513 362.250846,166.833665 362.250846,166.833665 C364.240918,166.427825 369.859272,149.067859 374.528088,146.461012 C376.369728,145.432727 377.897977,146.614626 378.701192,151.885434 C381.540671,170.518484 363.652344,208.333055 345.894385,211.954475 C334.055746,214.368755 327.907296,214.072306 327.449034,211.06513 Z" id="Path-5-Copy-17" fill="#F2BEA4" fill-rule="nonzero" mask="url(#mask-4)" transform="translate(340.500000, 161.567164) scale(-1, 1) translate(-340.500000, -161.567164) "></path>
                </g>
                <g id="Path-5-Copy-18-Clipped">
                    <mask id="mask-6" fill="white">
                        <use xlink:href="#path-5"></use>
                    </mask>
                    <g id="path-1"></g>
                    <path d="M214.119297,262.504833 C206.228231,210.289804 204.897039,184.541349 210.12572,185.259468 C217.968742,186.336645 214.665453,218.321246 219.159838,219.56024 C223.654223,220.799234 219.600646,176.856224 228.432862,175.162141 C237.265078,173.468058 229.346334,220.232271 234.17091,218.178221 C238.995486,216.124171 243.918721,168.330734 252.327433,170.648814 C260.736144,172.966893 244.214662,220.947042 250.931128,222.798611 C257.647595,224.650179 261.45604,175.463135 270.62332,179.710692 C279.790601,183.958248 258.740329,240.323293 261.716581,241.143774 C263.850929,241.732162 275.671041,230.934928 281.176686,230.947177 C283.348417,230.952009 284.537649,232.638741 283.762363,237.369606 C281.021619,254.093882 251.546544,277.054215 232.501176,271.803864 C219.804263,268.30363 213.67697,265.203953 214.119297,262.504833 Z" id="Path-5-Copy-18" fill="#C47A42" fill-rule="nonzero" mask="url(#mask-6)"></path>
                </g>
                <g id="Path-5-Copy-23-Clipped">
                    <mask id="mask-8" fill="white">
                        <use xlink:href="#path-7"></use>
                    </mask>
                    <g id="path-1"></g>
                    <path d="M14.6492119,166.94017 C-1.73347071,125.76632 -7.87176194,104.236397 -3.76566177,102.350401 C2.39348847,99.5214066 9.10593739,125.943616 11.5366534,124.335446 C13.9673694,122.727275 0.0834736695,93.0769477 5.81403385,86.7686764 C11.544594,80.4604051 19.7029385,115.756428 21.8119836,115.150198 C23.9210287,114.543968 13.2265476,70.843576 20.0890051,68.8710123 C26.9514627,66.8984486 30.4462131,111.182608 35.4902136,111.21849 C40.5342141,111.254372 28.543405,68.9545037 36.6405676,68.5691165 C44.7377302,68.1837292 50.7860666,124.96111 50.7860666,124.96111 C52.527935,124.460423 56.1517448,106.765226 60.1062231,103.928976 C61.6660879,102.810203 63.122912,103.925479 64.2596058,109.180615 C68.2779795,127.758265 55.3470336,166.567548 39.803863,171.03532 C29.4417493,174.013834 21.0568656,172.648784 14.6492119,166.94017 Z" id="Path-5-Copy-23" fill="#E1BA15" fill-rule="nonzero" mask="url(#mask-8)"></path>
                </g>
            </g>
        </g>
    </g>
</svg>

<svg width="360" height="261" xmlns="http://www.w3.org/2000/svg" xmlns:xlink="http://www.w3.org/1999/xlink"><defs><path id="a" d="M0 0h360v260H0z"/><path id="c" d="M0 0h360v260H0z"/><path id="e" d="M0 0h360v260H0z"/><path id="g" d="M0 0h360v260H0z"/></defs><g fill="none" fill-rule="evenodd"><path d="M0 .433h360v260H0z" fill="#1F441D" fill-rule="nonzero"/><g transform="translate(0 .433)"><mask id="b" fill="#fff"><use xlink:href="#a"/></mask><path d="M79.068 70.527c-.15-45.708 1.917-68.222 6.2-67.541 6.425 1.02-.287 28.937 3.318 30.065 3.605 1.128 5.642-37.313 13.237-38.704 7.594-1.391-4.802 39.394-.515 37.648 4.288-1.746 14.307-43.461 21.051-41.35 6.745 2.11-12.995 43.87-7.607 45.557 5.387 1.685 14.646-41.258 21.786-37.454 7.14 3.805-17.421 52.846-15.034 53.594 1.712.535 12.929-8.78 17.53-8.714 1.816.026 2.602 1.512 1.37 5.638-4.357 14.587-31.838 34.353-47.114 29.573-10.185-3.187-14.925-5.958-14.222-8.312z" fill="#CEC7B1" fill-rule="nonzero" mask="url(#b)"/></g><g transform="translate(0 .433)"><mask id="d" fill="#fff"><use xlink:href="#c"/></mask><path d="M327.449 211.065c-20.837-44.674-28.878-67.839-24.124-69.495 7.13-2.485 12.283 24.068 15.14 22.6 2.858-1.469-10.018-31.597-3.057-37.554 6.96-5.958 12.94 29.47 15.35 28.98 2.41-.492-5.657-44.387 2.183-45.986 7.84-1.6 7.814 42.5 13.444 42.798 5.631.299-4.008-42.275 5.071-42.236 9.079.04 10.795 56.662 10.795 56.662 1.99-.406 7.608-17.766 12.277-20.373 1.842-1.028 3.37.154 4.173 5.424 2.84 18.633-15.049 56.448-32.807 60.07-11.838 2.414-17.987 2.117-18.445-.89z" fill="#F2BEA4" fill-rule="nonzero" mask="url(#d)" transform="matrix(-1 0 0 1 681 0)"/></g><g transform="translate(0 .433)"><mask id="f" fill="#fff"><use xlink:href="#e"/></mask><path d="M214.12 262.505c-7.892-52.215-9.223-77.964-3.994-77.246 7.843 1.078 4.54 33.062 9.034 34.301 4.494 1.24.44-42.704 9.273-44.398 8.832-1.694.913 45.07 5.738 43.016 4.824-2.054 9.748-49.847 18.156-47.53 8.41 2.319-8.112 50.299-1.396 52.15 6.717 1.852 10.525-47.335 19.692-43.087 9.168 4.247-11.883 60.612-8.906 61.433 2.134.588 13.954-10.21 19.46-10.197 2.171.005 3.36 1.692 2.585 6.423-2.74 16.724-32.215 39.684-51.26 34.434-12.698-3.5-18.825-6.6-18.383-9.3z" fill="#C47A42" fill-rule="nonzero" mask="url(#f)"/></g><g transform="translate(0 .433)"><mask id="h" fill="#fff"><use xlink:href="#g"/></mask><path d="M14.65 166.94c-16.383-41.174-22.522-62.704-18.416-64.59 6.16-2.829 12.872 23.594 15.303 21.985 2.43-1.608-11.454-31.258-5.723-37.566 5.73-6.309 13.889 28.987 15.998 28.381 2.109-.606-8.585-44.306-1.723-46.279 6.862-1.973 10.357 42.312 15.401 42.347 5.044.036-6.947-42.263 1.15-42.649 8.098-.385 14.146 56.392 14.146 56.392 1.742-.5 5.366-18.196 9.32-21.032 1.56-1.119 3.017-.004 4.154 5.252 4.018 18.577-8.913 57.387-24.456 61.854-10.362 2.979-18.747 1.614-25.155-4.095z" fill="#E1BA15" fill-rule="nonzero" mask="url(#h)"/></g></g></svg>
